X: 2232
T: Duke of Athole's Strathspey
%R: strathspey
B: Niel Gow & Sons "A Second Collection of Strathspey Reels, etc." v.2 p.28 #2
Z: 2022 John Chambers <jc:trillian.mit.edu>
M: C
L: 1/8
Q: "Slow"
K: A
% - - - - - - - - - -
% Voice 1 reformatted for _ _-bar lines, for compactness and proofreading.
V: 1 staves=2
E |\
(A>BA)E A/A/A A>B | G>DGB d/c/B/A/ G>B |\
A>BAE A/A/A AB | TG>EB,D TE2A, :|\
e | Ta>eac A/A/A Ta2 | {^fa}g>deg d/c/B/A/ Ge |
Ta>eac c/c/c Ta2 | {^fa}g>dg>B {B}e2Ae ||\
Ta>eac A/A/A Ta2 | {^fa}g>deg d/c/B/A/ GB |\
A>Ec>A Tc>dea | G<EG>B, A,2A, |]
% - - - - - - - - - -
% Voice 2 preserves the staff layout in the book.
V: 2 clef=bass middle=d
z | a2a2 a2a2 | g2g2 g2g2 | a2a2 a2a2 | e2e2 A2A :|z | a2a2 a2a2 |
g2g2 g2g2 | a2a2 a2a2 | e2e2 a2A2 || a2a2 a2a2 | g2g2 g2g2 | c'2a2 A2c2 | e2E2 A2A |]


